X:4116
L:1/8
Q:1/8=160
M:6/8
K:D
 A | FDD ADD | FDD AGF | GEE BEE | GEE BAG | FDD ADD | FDD AGF | G2 A B2 A | BdF E2 :| D | 
 FGA dcd | FDD AGF | GEE BEE | GEE BAG | FGA dcd | FDD AGF | G2 A B2 A |1 BdF E2 :|2 BAF AGE | 
 D6 |]

